svg/color/wusdm.svg

<svg width="240" height="240" viewBox="0 0 240 240" fill="none" xmlns="http://www.w3.org/2000/svg">
<g clip-path="url(#clip0_353_37)">
<rect width="240" height="240" rx="120" fill="url(#paint0_linear_353_37)"/>
<g filter="url(#filter0_d_353_37)">
<path d="M120.029 145.82C134.272 145.82 145.82 134.273 145.82 120.029C145.82 105.785 134.272 94.2385 120.029 94.2385C105.786 94.2385 94.2382 105.785 94.2382 120.029C94.2382 134.273 105.786 145.82 120.029 145.82Z" fill="black"/>
<path fill-rule="evenodd" clip-rule="evenodd" d="M139.637 44.5677C134.301 48.9909 127.45 51.6496 119.979 51.6496C112.544 51.6496 105.724 49.0176 100.4 44.6342C94.751 39.9843 85.689 38.0052 80.4694 43.1311C67.9136 55.4602 55.4606 67.9138 43.1304 80.4697C38.0056 85.6893 39.9842 94.7518 44.6346 100.4C49.0169 105.724 51.6494 112.544 51.6494 119.978C51.6494 127.451 48.9908 134.302 44.5681 139.638C39.8985 145.27 37.8907 154.325 43.0116 159.55C55.3296 172.117 67.8139 184.539 80.3748 196.865C85.6115 202.004 94.7178 200.008 100.379 195.339C105.706 190.946 112.533 188.307 119.979 188.307C127.46 188.307 134.32 190.973 139.659 195.406C145.304 200.095 154.402 202.12 159.644 196.985C172.215 184.672 184.672 172.215 196.985 159.645C202.12 154.402 200.095 145.304 195.406 139.659C190.972 134.32 188.307 127.461 188.307 119.978C188.307 112.534 190.946 105.706 195.34 100.378C200.008 94.7175 202.004 85.6122 196.865 80.375C184.54 67.8141 172.117 55.3293 159.549 43.0117C154.324 37.8903 145.269 39.8992 139.637 44.5677ZM105.518 67.0001C113.543 58.9748 126.554 58.9748 134.579 67.0001L173.173 105.593C181.198 113.619 181.198 126.63 173.173 134.655L134.579 173.249C126.554 181.274 113.543 181.274 105.518 173.249L66.9244 134.655C58.899 126.63 58.899 113.619 66.9244 105.593L105.518 67.0001Z" fill="black"/>
</g>
</g>
<rect x="4" y="4" width="232" height="232" rx="116" stroke="url(#paint1_linear_353_37)" stroke-width="8"/>
<defs>
<filter id="filter0_d_353_37" x="31.9999" y="36" width="176" height="176" filterUnits="userSpaceOnUse" color-interpolation-filters="sRGB">
<feFlood flood-opacity="0" result="BackgroundImageFix"/>
<feColorMatrix in="SourceAlpha" type="matrix" values="0 0 0 0 0 0 0 0 0 0 0 0 0 0 0 0 0 0 127 0" result="hardAlpha"/>
<feOffset dy="4"/>
<feGaussianBlur stdDeviation="4"/>
<feComposite in2="hardAlpha" operator="out"/>
<feColorMatrix type="matrix" values="0 0 0 0 0 0 0 0 0 0 0 0 0 0 0 0 0 0 0.2 0"/>
<feBlend mode="normal" in2="BackgroundImageFix" result="effect1_dropShadow_353_37"/>
<feBlend mode="normal" in="SourceGraphic" in2="effect1_dropShadow_353_37" result="shape"/>
</filter>
<linearGradient id="paint0_linear_353_37" x1="120" y1="0" x2="120" y2="240" gradientUnits="userSpaceOnUse">
<stop stop-color="white"/>
<stop offset="1" stop-color="#EDEDED"/>
</linearGradient>
<linearGradient id="paint1_linear_353_37" x1="120" y1="0" x2="120" y2="240" gradientUnits="userSpaceOnUse">
<stop stop-color="#A1A1A1"/>
<stop offset="1" stop-color="white"/>
</linearGradient>
<clipPath id="clip0_353_37">
<rect width="240" height="240" rx="120" fill="white"/>
</clipPath>
</defs>
</svg>

<svg xmlns="http://www.w3.org/2000/svg" width="240" height="240" fill="none" viewBox="0 0 240 240"><g clip-path="url(#wusdm_svg-a)"><rect width="240" height="240" fill="url(#wusdm_svg-b)" rx="120"/><g fill="#000" filter="url(#wusdm_svg-c)"><path d="M120.029 145.82c14.243 0 25.791-11.547 25.791-25.791s-11.548-25.79-25.791-25.79-25.79 11.546-25.79 25.79 11.547 25.791 25.79 25.791"/><path fill-rule="evenodd" d="M139.637 44.568a30.7 30.7 0 0 1-19.658 7.082 30.7 30.7 0 0 1-19.579-7.016c-5.649-4.65-14.711-6.629-19.93-1.503A2906 2906 0 0 0 43.13 80.47c-5.124 5.22-3.146 14.282 1.505 19.93a30.7 30.7 0 0 1 7.014 19.578 30.7 30.7 0 0 1-7.08 19.66c-4.67 5.632-6.678 14.687-1.557 19.912 12.318 12.567 24.802 24.989 37.363 37.315 5.237 5.139 14.343 3.143 20.004-1.526a30.7 30.7 0 0 1 19.6-7.032 30.7 30.7 0 0 1 19.68 7.099c5.645 4.689 14.743 6.714 19.985 1.579a2553 2553 0 0 0 37.341-37.34c5.135-5.243 3.11-14.341-1.579-19.986a30.7 30.7 0 0 1-7.099-19.681 30.7 30.7 0 0 1 7.033-19.6c4.668-5.66 6.664-14.766 1.525-20.003-12.325-12.56-24.748-25.046-37.316-37.363-5.225-5.122-14.28-3.113-19.912 1.556M105.518 67c8.025-8.025 21.036-8.025 29.061 0l38.594 38.593c8.025 8.026 8.025 21.037 0 29.062l-38.594 38.594c-8.025 8.025-21.036 8.025-29.061 0l-38.594-38.594c-8.025-8.025-8.025-21.036 0-29.062z" clip-rule="evenodd"/></g></g><rect width="232" height="232" x="4" y="4" stroke="url(#wusdm_svg-d)" stroke-width="8" rx="116"/><defs><linearGradient id="wusdm_svg-b" x1="120" x2="120" y1="0" y2="240" gradientUnits="userSpaceOnUse"><stop stop-color="#fff"/><stop offset="1" stop-color="#EDEDED"/></linearGradient><linearGradient id="wusdm_svg-d" x1="120" x2="120" y1="0" y2="240" gradientUnits="userSpaceOnUse"><stop stop-color="#A1A1A1"/><stop offset="1" stop-color="#fff"/></linearGradient><clipPath id="wusdm_svg-a"><rect width="240" height="240" fill="#fff" rx="120"/></clipPath><filter id="wusdm_svg-c" width="176" height="176" x="32" y="36" color-interpolation-filters="sRGB" filterUnits="userSpaceOnUse"><feFlood flood-opacity="0" result="BackgroundImageFix"/><feColorMatrix in="SourceAlpha" result="hardAlpha" values="0 0 0 0 0 0 0 0 0 0 0 0 0 0 0 0 0 0 127 0"/><feOffset dy="4"/><feGaussianBlur stdDeviation="4"/><feComposite in2="hardAlpha" operator="out"/><feColorMatrix values="0 0 0 0 0 0 0 0 0 0 0 0 0 0 0 0 0 0 0.2 0"/><feBlend in2="BackgroundImageFix" result="effect1_dropShadow_353_37"/><feBlend in="SourceGraphic" in2="effect1_dropShadow_353_37" result="shape"/></filter></defs></svg>
